lib/flags/lc-saint-lucia.svg

<svg xmlns="http://www.w3.org/2000/svg" fill="none" aria-hidden="true" viewBox="0 0 42 30"><g filter="url(#a)"><g clip-path="url(#b)"><mask id="c" width="36" height="24" x="3" y="2" maskUnits="userSpaceOnUse" style="mask-type:alpha"><path fill="#fff" d="M3 2h36v24H3z"/></mask><g fill-rule="evenodd" clip-rule="evenodd" mask="url(#c)"><path fill="#7CCFF5" d="M3 2h36v24H3V2Z"/><path fill="#F7FCFF" d="m21 6 9 16H12l9-16Z"/><path fill="#272727" d="m21 10 7.875 12h-15.75L21 10Z"/><path fill="#FECA00" d="m21 16 9 6H12l9-6Z"/></g></g></g><defs><clipPath id="b"><rect width="36" height="24" x="3" y="2" fill="#fff" rx="2"/></clipPath><filter id="a" width="42" height="30" x="0" y="0" color-interpolation-filters="sRGB" filterUnits="userSpaceOnUse"><feFlood flood-opacity="0" result="BackgroundImageFix"/><feColorMatrix in="SourceAlpha" result="hardAlpha" values="0 0 0 0 0 0 0 0 0 0 0 0 0 0 0 0 0 0 127 0"/><feOffset dy="1"/><feGaussianBlur stdDeviation="1"/><feColorMatrix values="0 0 0 0 0.0627451 0 0 0 0 0.0941176 0 0 0 0 0.156863 0 0 0 0.06 0"/><feBlend in2="BackgroundImageFix" result="effect1_dropShadow_91_26759"/><feColorMatrix in="SourceAlpha" result="hardAlpha" values="0 0 0 0 0 0 0 0 0 0 0 0 0 0 0 0 0 0 127 0"/><feOffset dy="1"/><feGaussianBlur stdDeviation="1.5"/><feColorMatrix values="0 0 0 0 0.0627451 0 0 0 0 0.0941176 0 0 0 0 0.156863 0 0 0 0.1 0"/><feBlend in2="effect1_dropShadow_91_26759" result="effect2_dropShadow_91_26759"/><feBlend in="SourceGraphic" in2="effect2_dropShadow_91_26759" result="shape"/></filter></defs></svg>

<svg xmlns="http://www.w3.org/2000/svg" fill="none" aria-hidden="true" viewBox="0 0 42 30"><g id="Country=LC - Saint Lucia, Size=sm (36x24)" filter="url(#filter0_dd_91_26759)"><g clip-path="url(#clip0_91_26759)"><g id="flag"><mask id="mask0_91_26759" width="36" height="24" x="3" y="2" maskUnits="userSpaceOnUse" style="mask-type:alpha"><rect id="mask" width="36" height="24" x="3" y="2" fill="white"/></mask><g mask="url(#mask0_91_26759)"><g id="contents"><path id="base" fill="#7CCFF5" fill-rule="evenodd" d="M3 2H39V26H3V2Z" clip-rule="evenodd"/><path id="white" fill="#F7FCFF" fill-rule="evenodd" d="M21 6L30 22H12L21 6Z" clip-rule="evenodd"/><path id="black" fill="#272727" fill-rule="evenodd" d="M21 10L28.875 22H13.125L21 10Z" clip-rule="evenodd"/><path id="yello" fill="#FECA00" fill-rule="evenodd" d="M21 16L30 22H12L21 16Z" clip-rule="evenodd"/></g></g></g></g></g><defs><filter id="filter0_dd_91_26759" width="42" height="30" x="0" y="0" color-interpolation-filters="sRGB" filterUnits="userSpaceOnUse"><feFlood flood-opacity="0" result="BackgroundImageFix"/><feColorMatrix in="SourceAlpha" result="hardAlpha" values="0 0 0 0 0 0 0 0 0 0 0 0 0 0 0 0 0 0 127 0"/><feOffset dy="1"/><feGaussianBlur stdDeviation="1"/><feColorMatrix values="0 0 0 0 0.0627451 0 0 0 0 0.0941176 0 0 0 0 0.156863 0 0 0 0.06 0"/><feBlend in2="BackgroundImageFix" result="effect1_dropShadow_91_26759"/><feColorMatrix in="SourceAlpha" result="hardAlpha" values="0 0 0 0 0 0 0 0 0 0 0 0 0 0 0 0 0 0 127 0"/><feOffset dy="1"/><feGaussianBlur stdDeviation="1.5"/><feColorMatrix values="0 0 0 0 0.0627451 0 0 0 0 0.0941176 0 0 0 0 0.156863 0 0 0 0.1 0"/><feBlend in2="effect1_dropShadow_91_26759" result="effect2_dropShadow_91_26759"/><feBlend in="SourceGraphic" in2="effect2_dropShadow_91_26759" result="shape"/></filter><clipPath id="clip0_91_26759"><rect width="36" height="24" x="3" y="2" fill="white" rx="2"/></clipPath></defs></svg>
